X: 1
P: Glasgow Hornpipe
R: reel
C: Hill Manuscript (Aberdeen) 1841
C: from John Chambers; mods by T. Traub 2-10-04
M: C|
L: 1/8
K: G
|: BA | "G"GDB,D "(Em)"G2GB | "Am"AGAB "D7"c2BA | "G"Ggfg "Em"edcB | "Am"c2A2 "D7"A2BA|\
"G"GDB,D "(Em)"G2GB |
 "Am"AGAB "D7"c2BA | "G"Ggfe "D7"dcBA | "G"B2G2 G2 :|\
|: Bc| "G"dgfg "Em"edcB | "Am"cBce "D7"dcBA |
 "G"Ggfg "Em"edcB | "Am"c2A2 "D7"A2Bc | \
"G"dBcd "C"ecde | "D7"fdef "C"g2 fe | "D7"dgfe dcBA | "G"B2G2 G2 :|
